X: 102
T: Winter Sports
N: Copyright, 1916, by The Cable Company.
Q: "Allegro."
%R: air, waltz
B: "The Everyday Song Book", 1927
F: http://www.library.pitt.edu/happybirthday/pdf/The_Everyday_Song_Book.pdf
Z: 2017 John Chambers <jc:trillian.mit.edu>
M: 3/4
L: 1/4
K: Bb
% - - - - - - - - - - - - - - - - - - - - - - - - - - - - -
[| F2 B | d2 B | c e A | B d B | F2 B |
w: 1.~Stars are twin-kling, Sleigh-bells a tin-kling; Now, boys and
w: 2.~Moon-light glow-ing,  Shad-ows a-show-ing       All black and
%
d2 B | c e A | B3 | d2 c | B2 G | c2 B |
w: girls, Come out and be gay.     Pleas-ure's wait-ing\-\- Sled-ding,
w: clear  A-gainst the white snow; Skat-ers glid-ing,       Sledg-es
%
(A B) c | F2 B | d2 B | (c e) A | B3 |]
w: skat-*ing; Boys and girls, Come out_ and play.
w: slid-*ing, Cold and keen   The north_ winds blow.
% - - - - - - - - - - - - - - - - - - - - - - - - - - - - -
